X:1
T:Blow the man down
C:Shanty, fichier abc : Bernard Loffet
L:1/8
Q:370
K:C
M:3/4
 z4 [d2G,,2G,2] | [d2G,,2G,2] e2 d2 | [B2G,,2G,2] G2 [B2G,,2G,2] | [d2G,,2G,2] e2 d2 | \
 [B2G,,2G,2] G2 [B2G,,2G,2] | [d6G,,6G,6] | [e4C,,4C,4] [C,,2C,2] | [c3A,,3A,3]B c2 | \
 [A4D,,4D,4] [c2D,,2D,2] | [c2D,,2D,2] d2 c2 | [A2D,,2D,2] ^F2 [A2D,,2D,2] | [c2D,,2D,2] B2 A2 | \
 [e4D,,4D,4] [D,,2D,2] | [d2G,,2G,2] d2 d2 | [d4C,,4C,4] [c2C,,2C,2] | [B3D,,3D,3]A B2 | \
 [G6G,,6G,6] | \
W:Created with TablEdit http://www.tabledit.com/ by Bernard Loffet
